dist/img/money.svg

<svg width="102" height="102" viewBox="0 0 102 102" fill="none" xmlns="http://www.w3.org/2000/svg">
<path d="M96.6825 73.9904C95.3676 72.7194 93.7169 72.1335 92.0354 72.3428C89.2119 72.6928 85.5146 73.5192 81.6001 74.3941C76.3143 75.5757 70.8489 76.7973 66.6642 77.0807C63.0495 77.3249 56.4666 76.3043 54.5163 75.1971C53.2008 74.4503 52.4648 73.5345 52.0526 72.7248H60.1653C63.5122 72.7248 66.235 69.774 66.235 66.1471V60.9816C66.235 57.3546 63.5122 54.4041 60.1653 54.4041H37.9271C36.9823 54.3726 25.6361 54.1411 17.779 61.4044C16.3884 62.6898 15.2823 63.9044 14.4003 65.0082C13.4673 63.7446 12.0335 62.9328 10.4274 62.9328H3.17804C1.97514 62.9328 1 63.9896 1 65.2933V98.6395C1 99.2655 1.22963 99.866 1.63785 100.309C2.0465 100.751 2.60055 101 3.17804 101L10.4272 101C13.2327 101 15.5151 98.5262 15.5151 95.4859V93.6718C17.683 93.8193 22.596 94.4006 32.9935 96.5162C45.2723 99.0149 52.934 99.8617 58.9705 99.8615C63.2967 99.8615 66.7888 99.4267 70.5454 98.8533C75.1892 98.1449 81.0299 96.3544 86.1829 94.7747C88.5684 94.0434 90.8215 93.3528 92.8154 92.8079C98.1881 91.3393 98.9904 87.6678 98.9904 85.6097V79.5965C98.9904 77.4834 98.1275 75.3875 96.6825 73.9904ZM11.1592 95.4859C11.1592 95.9232 10.8308 96.2788 10.4274 96.2788L5.35608 96.279V67.6539H10.4272C10.8306 67.6539 11.159 68.0095 11.159 68.4468V95.4859H11.1592ZM94.6344 85.61C94.6344 86.1113 94.6343 87.4421 91.7504 88.2302C89.6962 88.7918 87.4138 89.4914 84.9975 90.2321C79.978 91.7709 74.2888 93.5149 69.9383 94.1785C61.3678 95.4864 54.222 96.0327 33.7973 91.8768C23.2932 89.7393 18.0796 89.0933 15.5151 88.9451V71.4193C15.5929 71.3139 15.6648 71.2017 15.7269 71.0792C16.2849 69.9759 17.6608 67.7187 20.6059 64.9963C27.3211 58.7889 37.7025 59.1195 37.8047 59.1234C37.8329 59.1245 37.8611 59.1252 37.8894 59.1252H60.1655C61.1104 59.1252 61.8791 59.958 61.8791 60.9818V66.1473C61.8791 67.1713 61.1104 68.0042 60.1655 68.0042H37.8894C36.6865 68.0042 35.7113 69.0609 35.7113 70.3646C35.7113 71.6682 36.6865 72.725 37.8894 72.725H47.4265C47.8743 74.6605 49.11 77.4575 52.4951 79.3791C55.591 81.1368 63.27 82.0421 66.9357 81.7926C71.4274 81.4887 77.0464 80.2327 82.4803 79.0179C86.2962 78.1647 89.9005 77.359 92.5306 77.0331C93.0848 76.9652 93.5171 77.2563 93.7828 77.5135C94.3081 78.0213 94.6346 78.8198 94.6346 79.597V85.61H94.6344Z" fill="#306990" stroke="#306990" stroke-width="2"/>
<path d="M95.415 1H18.915C15.835 1 13.3292 3.71561 13.3292 7.05346V45.921C13.3292 49.2591 15.835 51.9749 18.915 51.9749H95.415C98.4949 51.9749 101.001 49.2591 101.001 45.921V7.05324C101.001 3.71561 98.4949 1 95.415 1ZM84.6098 47.2539H29.7247C29.1476 40.2162 24.0987 34.5548 17.6855 33.6347V18.6959C23.9016 17.8039 28.8352 12.4572 29.6581 5.72061H84.6764C85.4993 12.4559 90.4306 17.8017 96.6446 18.6955V33.6352C90.2337 34.5573 85.1869 40.218 84.6098 47.2539ZM96.6446 7.05324V13.916C92.8364 13.1087 89.8296 9.84865 89.0862 5.72061H95.415C96.093 5.72084 96.6446 6.31859 96.6446 7.05324ZM18.915 5.72084H25.2481C24.5046 9.85045 21.4958 13.1112 17.6853 13.9171V7.05324C17.6855 6.31859 18.2371 5.72084 18.915 5.72084ZM17.6855 45.921V38.4138C21.6919 39.261 24.8112 42.8224 25.3437 47.2539H18.915C18.2371 47.2539 17.6855 46.6559 17.6855 45.921ZM95.415 47.2539H88.9908C89.523 42.8239 92.6401 39.2633 96.6444 38.4147V45.921C96.6446 46.6559 96.093 47.2539 95.415 47.2539Z" fill="#306990" stroke="#306990" stroke-width="2"/>
<path d="M57.2817 9.6015C48.6896 9.6015 41.6996 17.1766 41.6996 26.4879C41.6996 35.7995 48.6896 43.3748 57.2817 43.3748C65.8736 43.3748 72.8636 35.7995 72.8636 26.4879C72.8636 17.1769 65.8736 9.6015 57.2817 9.6015ZM57.2817 38.6542C51.0915 38.6542 46.0557 33.1967 46.0557 26.4882C46.0557 19.7801 51.0915 14.3226 57.2817 14.3226C63.4717 14.3226 68.5075 19.7801 68.5075 26.4882C68.5075 33.1965 63.4717 38.6542 57.2817 38.6542Z" fill="#306990" stroke="#306990" stroke-width="2"/>
<path d="M32.2066 19.2292C28.5122 19.2292 25.507 22.4861 25.507 26.4898C25.507 30.4933 28.5122 33.7503 32.2066 33.7503C35.9007 33.7503 38.906 30.4933 38.906 26.4898C38.906 22.4861 35.9007 19.2292 32.2066 19.2292ZM32.2066 29.0292C30.9145 29.0292 29.863 27.8901 29.863 26.4896C29.863 25.0891 30.9143 23.9498 32.2066 23.9498C33.4989 23.9498 34.5499 25.0891 34.5499 26.4896C34.5499 27.8901 33.4989 29.0292 32.2066 29.0292Z" fill="#306990" stroke="#306990" stroke-width="2"/>
<path d="M82.3579 19.2292C78.6637 19.2292 75.6584 22.4861 75.6584 26.4898C75.6584 30.4933 78.6637 33.7503 82.3579 33.7503C86.0523 33.7503 89.0578 30.4933 89.0578 26.4898C89.0578 22.4861 86.0523 19.2292 82.3579 19.2292ZM82.3579 29.0292C81.0656 29.0292 80.0145 27.8901 80.0145 26.4896C80.0145 25.0891 81.0656 23.9498 82.3579 23.9498C83.6502 23.9498 84.7017 25.0891 84.7017 26.4896C84.7017 27.8901 83.6504 29.0292 82.3579 29.0292Z" fill="#306990" stroke="#306990" stroke-width="2"/>
</svg>

<svg width="102" height="102" fill="none" xmlns="http://www.w3.org/2000/svg"><path d="M96.683 73.99c-1.315-1.27-2.966-1.856-4.648-1.647-2.823.35-6.52 1.176-10.435 2.051-5.286 1.182-10.751 2.403-14.936 2.687-3.614.244-10.197-.777-12.148-1.884-1.315-.747-2.051-1.663-2.463-2.472h8.112c3.347 0 6.07-2.951 6.07-6.578v-5.165c0-3.627-2.723-6.578-6.07-6.578H37.927c-.945-.031-12.29-.263-20.148 7a32.827 32.827 0 00-3.379 3.604c-.933-1.263-2.367-2.075-3.973-2.075H3.178C1.975 62.933 1 63.99 1 65.293V98.64c0 .627.23 1.227.638 1.67a2.1 2.1 0 001.54.691h7.25c2.805 0 5.087-2.474 5.087-5.514v-1.814c2.168.147 7.081.729 17.478 2.844 12.28 2.499 19.941 3.346 25.977 3.346 4.327 0 7.819-.435 11.575-1.009 4.644-.708 10.485-2.499 15.638-4.078 2.385-.732 4.638-1.422 6.632-1.967 5.373-1.469 6.175-5.14 6.175-7.198v-6.013c0-2.114-.862-4.21-2.307-5.607zM11.159 95.486c0 .437-.328.793-.732.793h-5.07V67.654h5.07c.404 0 .732.356.732.793v27.039h0zm83.475-9.876c0 .501 0 1.832-2.884 2.62-2.054.562-4.336 1.261-6.752 2.002-5.02 1.539-10.71 3.283-15.06 3.947-8.57 1.307-15.716 1.854-36.14-2.302-10.505-2.138-15.718-2.784-18.283-2.932V71.42a2.32 2.32 0 00.212-.34c.558-1.103 1.934-3.36 4.879-6.083 6.715-6.207 17.096-5.876 17.199-5.873.028.002.056.002.084.002h22.276c.945 0 1.714.833 1.714 1.857v5.165c0 1.024-.769 1.857-1.713 1.857H37.889c-1.203 0-2.178 1.057-2.178 2.36 0 1.304.976 2.361 2.178 2.361h9.537c.448 1.936 1.684 4.733 5.07 6.654 3.095 1.758 10.774 2.663 14.44 2.414 4.491-.304 10.11-1.56 15.544-2.775 3.816-.853 7.42-1.659 10.05-1.985.555-.068.987.223 1.253.48.525.508.852 1.307.852 2.084v6.013h0zM95.415 1h-76.5c-3.08 0-5.586 2.716-5.586 6.053v38.868c0 3.338 2.506 6.054 5.586 6.054h76.5c3.08 0 5.586-2.716 5.586-6.054V7.053c0-3.337-2.506-6.053-5.586-6.053zM84.61 47.254H29.725c-.577-7.038-5.626-12.7-12.04-13.62V18.697c6.217-.892 11.15-6.239 11.973-12.975h55.018c.823 6.735 5.755 12.08 11.969 12.974v14.94c-6.411.922-11.458 6.583-12.035 13.619zm12.035-40.2v6.862c-3.809-.807-6.815-4.067-7.559-8.195h6.329c.678 0 1.23.598 1.23 1.332zM18.915 5.72h6.333c-.743 4.13-3.752 7.39-7.563 8.196V7.053c0-.734.552-1.332 1.23-1.332zm-1.23 40.2v-7.507c4.007.847 7.126 4.408 7.659 8.84h-6.429c-.678 0-1.23-.598-1.23-1.333zm77.73 1.333h-6.424c.532-4.43 3.65-7.99 7.653-8.84v7.507c0 .735-.551 1.333-1.229 1.333z" fill="#306990" stroke="#306990" stroke-width="2"/><path d="M57.282 9.601c-8.592 0-15.582 7.576-15.582 16.887 0 9.312 6.99 16.887 15.582 16.887S72.864 35.8 72.864 26.488c0-9.311-6.99-16.887-15.582-16.887zm0 29.053c-6.19 0-11.226-5.457-11.226-12.166 0-6.708 5.036-12.165 11.226-12.165 6.19 0 11.225 5.457 11.225 12.165 0 6.709-5.035 12.166-11.225 12.166zM32.207 19.23c-3.695 0-6.7 3.256-6.7 7.26 0 4.003 3.005 7.26 6.7 7.26 3.694 0 6.699-3.257 6.699-7.26 0-4.004-3.005-7.26-6.7-7.26zm0 9.8c-1.293 0-2.344-1.14-2.344-2.54 0-1.4 1.051-2.54 2.344-2.54 1.292 0 2.343 1.14 2.343 2.54 0 1.4-1.051 2.54-2.343 2.54zm50.151-9.8c-3.694 0-6.7 3.256-6.7 7.26 0 4.003 3.006 7.26 6.7 7.26 3.694 0 6.7-3.257 6.7-7.26 0-4.004-3.006-7.26-6.7-7.26zm0 9.8c-1.292 0-2.344-1.14-2.344-2.54 0-1.4 1.052-2.54 2.344-2.54 1.292 0 2.344 1.14 2.344 2.54 0 1.4-1.052 2.54-2.344 2.54z" fill="#306990" stroke="#306990" stroke-width="2"/></svg>
